X:1
T:’Twas a Glad Day When Jesus Found Me
T:’Twas a Glad Day When Jesus Found Me
T:Albert Simpson Reitz
T:Albert Simpson Reitz, 1918
T:Public Domain Courtesy of the Cyber Hymnal™
T:Public Domain Courtesy of the Cyber Hymnal™
C:Albert Simpson Reitz
Z:Public Domain
Z:Courtesy of the Cyber Hymnal™
%%score 1 ( 2 3 )
L:1/8
Q:1/4=105
M:4/4
K:Ab
V:1 treble 
V:2 bass 
V:3 bass 
V:1
 [CA][DB] | [Ec]2 [CE]2 [CA]2 [Ec]2 | [Fd]2 [Ec]2 [Ec][DB][DG][CA] | [DB]2 [DE]2 [DG]3 [Fd] | %4
w: 1.~I was|lost in sin when|Je- sus found me, But He|res- cued me, all|
w: 2.~O the|bells of Hea- ven|now are ring- ing, For I|hear their tones with-|
w: 3.~O the|joy when we shall|meet in glo- ry, In the|man- sions of my|
 [Fd][Ec][Ec][=D=B] [Ec]2 [CA][_D_B] | [Ec]2 [CE]2 [CA]2 [_Gc]2 | [Fe]2 [Fd]2 [Fd][DF][FA][_FB] | %7
w: glo- ry to His name! And the|cords of world- ly|plea- sure bound me, Till He|
w: in my ran- somed soul; And my|heart is filled with|joy- ful sing- ing Since the|
w: Fa- ther’s home a- bove; And through|end- less ag- es|tell the sto- ry Of the|
 [Ec] [Ae]2 [Gd] [Ac]2 [EB]2 | [EA]6 ||"^Refrain" [A,C][B,D] | %10
w: saved me from sin and|shame.||
w: Sav- ior has made me|whole.||
w: Sav- ior’s re- deem- ing|love.||
 [CE]2 [Ec]3 [Ec][Fd][Ec] [=Dc]2 [DB]4 [DF][D^F] | [EG]2 [Gd]3 [Gd][Ec][EB] | %12
w: ||
w: ||
w: ||
 [F=B]2 [Ec]4 [CA][D_B] | [Ec]2 [Ec]2 [Fd]2 [Ec]2 | [Ec][DB][DB][CA] [DB]2 [DG][DA] | %15
w: |||
w: |||
w: |||
 [DB]2 [DB]2 [Ec]2 [DB]2 | [DB][CA][CA][DF] [CE]2 [A,C][B,D] | [CE]2 [Ec]3 [Ec][Fd][Ec] | %18
w: |||
w: |||
w: |||
 [=Dc]2 [DF]4 [DG][DA] | [EB]2 [Ed]3 [Ed][Ec][EB] | [Ec]6 [Ec][Ed] | [Ae]2 [Ae]2 [Ae]2 [Ae]2 | %22
w: ||||
w: ||||
w: ||||
 [Af] [Ae]2 [_Gc] [FB][FA][FA][_FB] | [Ec] [Ae]2 [Gd] [Ac]2 [EB]2 | [EA]6 |] %25
w: |||
w: |||
w: |||
V:2
 [A,,A,][A,,A,] | [A,,A,]2 [A,,A,]2 [A,,A,]2 [A,,A,]2 | %2
w: ~ ~|~ ~ ~ ~|
 [A,,A,]2 [A,,A,]2 [E,G,][E,G,][E,B,][E,B,] | [E,G,]2 [E,G,]2 [E,B,]3 [E,G,] | %4
w: ~ ~ ~ ~ ~ ~|~ ~ ~ ~|
 A,A,A,A, A,2 [A,,A,][A,,A,] | [A,,A,]2 [A,,A,]2 [A,,A,]2 A,2 | %6
w: ~ ~ ~ ~ ~ ~ ~|~ ~ ~ ~|
 [D,A,]2 [D,A,]2 [D,A,][D,A,][D,A,][D,A,] | [E,A,] [E,C]2 [E,B,] [E,E]2 [E,D]2 | [A,,C]6 || %9
w: ~ ~ ~ ~ ~ ~|~ ~ ~ ~ ~|~|
 [A,,E,][A,,E,] | [A,,A,]2 [A,,A,]3 [A,,A,][A,,A,][A,,A,] [B,,A,]2 [B,,A,]4 [B,,B,][B,,B,] | %11
w: ’Twas a|glad day when Je- sus found me, When His|
 [E,B,]2 [E,B,]3 [E,B,][E,G,][E,G,] | A,2 A,4 [A,,E,][A,,D,] | %13
w: strong arms were thrown a-|round me; When my|
 [A,,A,]2 [A,,A,]2 [A,,A,]2 [A,,A,]2 | [E,A,][E,G,][E,G,][E,F,] [E,G,]2 [E,B,][E,B,] | %15
w: sins He bur- ied|in the deep- est sea, And my|
 [E,G,]2 [E,G,]2 [E,A,]2 [E,G,]2 | [A,,A,][A,,A,][A,,A,][A,,A,] [A,,A,]2 [A,,E,][A,,E,] | %17
w: soul He filled with|joy and vic- to- ry. ’Twas a|
 [A,,A,]2 [A,,A,]3 [A,,A,][A,,A,][A,,A,] | [B,,A,]2 [B,,A,]4 [B,,B,][B,,B,] | %19
w: glad day, O hal- le-|lu- jah! ’Twas a|
 [E,G,]2 [E,G,]3 [E,G,][E,G,][E,G,] | [A,,A,]6 A,[A,B,] | [A,C]2 [A,C]2 [A,C]2 [A,C]2 | %22
w: glad day He claimed His|own. I will|shout a glad ho-|
 [A,D] [A,C]2 [A,E] [D,D][D,D][D,D][D,A,] | [E,A,] [E,C]2 [E,B,] [E,E]2 [E,D]2 | [A,,C]6 |] %25
w: san- na in glo- ry When I|see Him up- on His|throne.|
V:3
 x2 | x8 | x8 | x8 | x8 | x8 | x8 | x8 | x6 || x2 | x16 | x8 | A,2 A,4 x2 | x8 | x8 | x8 | x8 | %17
 x8 | x8 | x8 | x6 A, x | x8 | x8 | x8 | x6 |] %25

